src/svg/uf1e4-tty.svg

<!-- Generated by IcoMoon.io -->
<svg version="1.1" xmlns="http://www.w3.org/2000/svg" width="32" height="32" viewBox="0 0 32 32">
<path d="M8 23.429v3.429c0 0.321-0.25 0.571-0.571 0.571h-3.429c-0.321 0-0.571-0.25-0.571-0.571v-3.429c0-0.321 0.25-0.571 0.571-0.571h3.429c0.321 0 0.571 0.25 0.571 0.571zM4.571 16.571v3.429c0 0.321-0.25 0.571-0.571 0.571h-3.429c-0.321 0-0.571-0.25-0.571-0.571v-3.429c0-0.321 0.25-0.571 0.571-0.571h3.429c0.321 0 0.571 0.25 0.571 0.571zM14.857 23.429v3.429c0 0.321-0.25 0.571-0.571 0.571h-3.429c-0.321 0-0.571-0.25-0.571-0.571v-3.429c0-0.321 0.25-0.571 0.571-0.571h3.429c0.321 0 0.571 0.25 0.571 0.571zM11.429 16.571v3.429c0 0.321-0.25 0.571-0.571 0.571h-3.429c-0.321 0-0.571-0.25-0.571-0.571v-3.429c0-0.321 0.25-0.571 0.571-0.571h3.429c0.321 0 0.571 0.25 0.571 0.571zM1.179 13.714c-0.661 0-1.179-0.518-1.179-1.161v-2.304h9.179v2.304c0 0.643-0.518 1.161-1.161 1.161h-6.839zM21.714 23.429v3.429c0 0.321-0.25 0.571-0.571 0.571h-3.429c-0.321 0-0.571-0.25-0.571-0.571v-3.429c0-0.321 0.25-0.571 0.571-0.571h3.429c0.321 0 0.571 0.25 0.571 0.571zM18.286 16.571v3.429c0 0.321-0.25 0.571-0.571 0.571h-3.429c-0.321 0-0.571-0.25-0.571-0.571v-3.429c0-0.321 0.25-0.571 0.571-0.571h3.429c0.321 0 0.571 0.25 0.571 0.571zM28.571 23.429v3.429c0 0.321-0.25 0.571-0.571 0.571h-3.429c-0.321 0-0.571-0.25-0.571-0.571v-3.429c0-0.321 0.25-0.571 0.571-0.571h3.429c0.321 0 0.571 0.25 0.571 0.571zM25.143 16.571v3.429c0 0.321-0.25 0.571-0.571 0.571h-3.429c-0.321 0-0.571-0.25-0.571-0.571v-3.429c0-0.321 0.25-0.571 0.571-0.571h3.429c0.321 0 0.571 0.25 0.571 0.571zM32 9.286v0.232h-9.179v-0.179c0-0.661-0.571-1.857-6.821-1.821-6.25 0.018-6.821 1.161-6.821 1.821v0.179h-9.179v-0.232c0-1.196 2.143-7 16-7 13.839 0 16 5.804 16 7zM32 16.571v3.429c0 0.321-0.25 0.571-0.571 0.571h-3.429c-0.321 0-0.571-0.25-0.571-0.571v-3.429c0-0.321 0.25-0.571 0.571-0.571h3.429c0.321 0 0.571 0.25 0.571 0.571zM32 10.25v2.304c0 0.643-0.518 1.161-1.161 1.161h-6.857c-0.643 0-1.161-0.518-1.161-1.161v-2.304h9.179z"></path>
</svg>

<svg xmlns="http://www.w3.org/2000/svg" width="32" height="32"><path d="M8 23.429v3.429c0 .321-.25.571-.571.571H4a.564.564 0 0 1-.571-.571v-3.429c0-.321.25-.571.571-.571h3.429c.321 0 .571.25.571.571zm-3.429-6.858V20c0 .321-.25.571-.571.571H.571A.564.564 0 0 1 0 20v-3.429C0 16.25.25 16 .571 16H4c.321 0 .571.25.571.571zm10.286 6.858v3.429c0 .321-.25.571-.571.571h-3.429a.564.564 0 0 1-.571-.571v-3.429c0-.321.25-.571.571-.571h3.429c.321 0 .571.25.571.571zm-3.428-6.858V20c0 .321-.25.571-.571.571H7.429A.564.564 0 0 1 6.858 20v-3.429c0-.321.25-.571.571-.571h3.429c.321 0 .571.25.571.571zm-10.25-2.857A1.163 1.163 0 0 1 0 12.553v-2.304h9.179v2.304c0 .643-.518 1.161-1.161 1.161H1.179zm20.535 9.715v3.429c0 .321-.25.571-.571.571h-3.429a.564.564 0 0 1-.571-.571v-3.429c0-.321.25-.571.571-.571h3.429c.321 0 .571.25.571.571zm-3.428-6.858V20c0 .321-.25.571-.571.571h-3.429a.564.564 0 0 1-.571-.571v-3.429c0-.321.25-.571.571-.571h3.429c.321 0 .571.25.571.571zm10.285 6.858v3.429c0 .321-.25.571-.571.571h-3.429a.564.564 0 0 1-.571-.571v-3.429c0-.321.25-.571.571-.571H28c.321 0 .571.25.571.571zm-3.428-6.858V20c0 .321-.25.571-.571.571h-3.429a.564.564 0 0 1-.571-.571v-3.429c0-.321.25-.571.571-.571h3.429c.321 0 .571.25.571.571zM32 9.286v.232h-9.179v-.179c0-.661-.571-1.857-6.821-1.821-6.25.018-6.821 1.161-6.821 1.821v.179H0v-.232c0-1.196 2.143-7 16-7 13.839 0 16 5.804 16 7zm0 7.285V20c0 .321-.25.571-.571.571H28a.564.564 0 0 1-.571-.571v-3.429c0-.321.25-.571.571-.571h3.429c.321 0 .571.25.571.571zm0-6.321v2.304c0 .643-.518 1.161-1.161 1.161h-6.857a1.159 1.159 0 0 1-1.161-1.161V10.25H32z"/></svg>
